X:1
T:We Be Soldiers Three
M:6/8
L:1/8
K:G
 E2 z F2 z| A2 G F2 z| E3/2 F/2 G F2 B| G3/2- F/2 E F3| d3/2 c/2 B A3/2 G/2 A|\
 B3/2- A/2 G F2 B| A3/2 B/2 G F3/2 E/2 F| G E2- E3|

